img/footer-img-01.svg

<svg width="23" height="24" viewBox="0 0 23 24" fill="none" xmlns="http://www.w3.org/2000/svg">
<path d="M17.8482 12.9767C17.7369 12.8652 17.6046 12.7767 17.459 12.7163C17.3135 12.656 17.1574 12.6249 16.9998 12.6249C16.8422 12.6249 16.6862 12.656 16.5406 12.7163C16.395 12.7767 16.2628 12.8652 16.1514 12.9767L14.2386 14.8895C13.3519 14.6255 11.6971 14.0255 10.6483 12.9767C9.59949 11.9279 8.9995 10.2731 8.7355 9.38635L10.6483 7.47357C10.7598 7.36223 10.8483 7.22998 10.9087 7.08441C10.969 6.93883 11.0001 6.78278 11.0001 6.62518C11.0001 6.46758 10.969 6.31153 10.9087 6.16595C10.8483 6.02038 10.7598 5.88813 10.6483 5.77679L5.84833 0.976838C5.73698 0.865304 5.60474 0.776819 5.45916 0.716447C5.31359 0.656075 5.15754 0.625 4.99994 0.625C4.84234 0.625 4.68629 0.656075 4.54071 0.716447C4.39513 0.776819 4.26289 0.865304 4.15155 0.976838L0.897179 4.23121C0.441183 4.6872 0.184386 5.31359 0.193985 5.95319C0.221585 7.66197 0.673981 13.5971 5.35153 18.2747C10.0291 22.9522 15.9642 23.4034 17.6742 23.4322H17.7078C18.3414 23.4322 18.9402 23.1826 19.3938 22.729L22.6482 19.4747C22.7597 19.3633 22.8482 19.2311 22.9086 19.0855C22.9689 18.9399 23 18.7839 23 18.6263C23 18.4687 22.9689 18.3126 22.9086 18.167C22.8482 18.0215 22.7597 17.8892 22.6482 17.7779L17.8482 12.9767ZM17.6958 21.031C16.1982 21.0058 11.0743 20.6038 7.04832 16.5767C3.00916 12.5375 2.61796 7.39557 2.59396 5.92799L4.99994 3.52201L8.10311 6.62518L6.55152 8.17677C6.41048 8.3177 6.30678 8.49157 6.24979 8.68264C6.1928 8.87372 6.18432 9.07598 6.22513 9.27115C6.25392 9.40915 6.95832 12.6815 8.9503 14.6735C10.9423 16.6655 14.2146 17.3699 14.3526 17.3987C14.5477 17.4406 14.7502 17.4328 14.9414 17.376C15.1327 17.3192 15.3065 17.2151 15.447 17.0735L16.9998 15.5219L20.103 18.6251L17.6958 21.031Z" fill="#8EC2F2"/>
</svg>

<svg width="23" height="24" fill="none" xmlns="http://www.w3.org/2000/svg"><path d="M17.848 12.977a1.2 1.2 0 0 0-1.697 0l-1.912 1.912c-.887-.263-2.542-.864-3.59-1.912-1.05-1.05-1.65-2.704-1.913-3.59l1.912-1.913a1.2 1.2 0 0 0 0-1.697l-4.8-4.8a1.199 1.199 0 0 0-1.696 0L.897 4.23a2.398 2.398 0 0 0-.703 1.722c.028 1.709.48 7.644 5.158 12.322 4.677 4.677 10.612 5.128 12.322 5.157h.034c.633 0 1.232-.25 1.686-.703l3.254-3.254a1.2 1.2 0 0 0 0-1.697l-4.8-4.801Zm-.152 8.054c-1.498-.025-6.622-.427-10.648-4.454-4.039-4.04-4.43-9.181-4.454-10.649L5 3.522l3.103 3.103-1.551 1.552a1.2 1.2 0 0 0-.327 1.094c.029.138.733 3.41 2.725 5.402 1.992 1.993 5.265 2.697 5.403 2.726a1.19 1.19 0 0 0 1.094-.326L17 15.522l3.103 3.103-2.407 2.406Z" fill="#8EC2F2"/></svg>
